src/components/buttons/PlayButtonNew/img/finish.svg

<svg width="56" height="69" viewBox="0 0 56 69" fill="none" xmlns="http://www.w3.org/2000/svg">
<path d="M54.447 4.15479C53.4885 3.56679 52.2846 3.5258 51.2831 4.0449C48.7286 5.36739 46.215 6.46149 41.3624 6.46149C36.023 6.46149 33.5095 5.13689 30.5954 3.60339C27.3862 1.91479 23.7505 0 16.8194 0C12.0228 0 8.81788 0.917502 6.22889 2.0375C5.75289 0.846404 4.59419 0 3.23079 0C1.4474 0 0 1.4452 0 3.23079V65.6922C0 67.4778 1.4474 68.923 3.23079 68.923C5.01419 68.923 6.46158 67.4778 6.46158 65.6922V39.2559C9.20558 37.8171 11.7364 36.6153 16.8195 36.6153C22.1567 36.6153 24.6724 37.94 27.5843 39.4735C30.7935 41.1621 34.427 43.0769 41.3624 43.0769C47.6582 43.0769 51.184 41.5261 54.2532 39.9387C55.328 39.383 56 38.2759 56 37.0676V6.91388C55.9999 5.78739 55.4119 4.74059 54.447 4.15479ZM49.5384 35.0473C47.4793 35.9584 45.1252 36.6153 41.3623 36.6153C36.0229 36.6153 33.5094 35.2907 30.5953 33.7572C27.3861 32.0686 23.7504 30.1538 16.8194 30.1538C12.1692 30.1538 9.01168 31.0132 6.46149 32.088V9.10218C9.20549 7.66339 11.7363 6.46158 16.8194 6.46158C22.1566 6.46158 24.6723 7.78618 27.5843 9.31968C30.7935 11.0083 34.4269 12.9231 41.3623 12.9231C44.7804 12.9231 47.3823 12.4665 49.5384 11.7945V35.0473Z" fill="white"/>
</svg>

<svg width="56" height="69" fill="none" xmlns="http://www.w3.org/2000/svg"><path d="M54.447 4.155a3.223 3.223 0 0 0-3.164-.11c-2.554 1.322-5.068 2.416-9.92 2.416-5.34 0-7.853-1.324-10.768-2.858C27.386 1.915 23.75 0 16.82 0 12.023 0 8.818.918 6.23 2.038A3.23 3.23 0 0 0 0 3.23v62.461a3.23 3.23 0 1 0 6.462 0V39.256c2.744-1.439 5.274-2.64 10.358-2.64 5.337 0 7.852 1.324 10.764 2.858 3.21 1.688 6.843 3.603 13.778 3.603 6.296 0 9.822-1.55 12.891-3.138A3.23 3.23 0 0 0 56 37.068V6.914a3.229 3.229 0 0 0-1.553-2.76zm-4.909 30.892c-2.059.911-4.413 1.568-8.176 1.568-5.34 0-7.853-1.324-10.767-2.858-3.209-1.688-6.845-3.603-13.776-3.603-4.65 0-7.807.86-10.358 1.934V9.102c2.744-1.439 5.275-2.64 10.358-2.64 5.338 0 7.853 1.324 10.765 2.858 3.21 1.688 6.843 3.603 13.778 3.603 3.418 0 6.02-.457 8.176-1.129v23.253z" fill="#fff"/></svg>
